!!!!SEGMENT: pl-kk--kk-i-1--005-001_anonim--missa-gaude-virgo-kyrie.krn
!!!cenid: 15xx:673
!!!COM: Anonim
!!!COM-rismid: pe30004985
!!!CDT:
!!!CNT:
!!!OPR: [Missa] Gaude virgo
!!!OTL: Kyrie
!!!OMV: 001
!!!PDT:
!!!AGN:
!!!SMS-siglum: PL-Kk
!!!SMS-shelfmark: Kk.I.1
!!!SMS-shelfwork: 005-001 M
!!!SMS-variant:
!!!SMS-altvar:
!!!NIFC-rismid: 300257959
!!!URL-scan: http://repozytorium.nifc.pl/skany/pl-kk-nut--i-1
!!!ONB-nifc: UWAGA: Cantus (s. 30v-41r, skan 0033-0043), Altus (s. 31v-42v, skan 0224-0235), Tenor (s. 31r-42r, skan 0419-0430), Bassus (s. 30v-40r, skan 0592-0601). Części Mszy: 1. Kyrie, 2. Et in terra, 3. Patrem, 4. Sanctus, 5. Agnus Dei
**kern	**text	**kern	**text	**kern	**text	**kern	**text
*part4	*part4	*part3	*part3	*part2	*part2	*part1	*part1
*staff4	*staff4	*staff3	*staff3	*staff2	*staff2	*staff1	*staff1
*Iempty	*	*Itenor	*	*Iempty	*	*Iempty	*
*I"BASSVS	*	*I"TENOR	*	*I"ALTVS	*	*I"CANTVS	*
*I'B	*	*I'T	*	*I'A	*	*I'C	*
*clefF3	*	*clefC3	*	*clefC2	*	*clefC2	*
*k[b-]	*	*k[b-]	*	*k[b-]	*	*k[b-]	*
*F:	*	*F:	*	*F:	*	*F:	*
*M2/1	*	*M2/1	*	*M2/1	*	*M2/1	*
*	*	*	*	*	*	*met(C|)	*
=1-	=1-	=1-	=1-	=1-	=1-	=1-	=1-
!	!	!LO:TX:a:t=Gaude virgo m(ate)r Chr(ist)i.	!	!	!	!LO:TX:a:t=10	!
!LO:TX:a:t=Gaude virgo	!	!LO:TX:t=P:problem=kreska pseudotaktowa	!	!LO:TX:a:t=Gaude\nvirgo.	!	!LO:TX:a:B:t=Officiu(m), Gaude virgo m(ate)r chri(st)i.	!
00r	.	1r	.	1.B-/	KŸ-	00r	.
.	.	1.B-/	KY-	.	.	.	.
!	!	!	!	!LO:TX:t=P:problem=kreska pseudotaktowa	!	!	!
.	.	.	.	2G/	-ri-	.	.
=2-	=2-	=2-	=2-	=2-	=2-	=2-	=2-
.	.	.	.	1G/	-e	.	.
!	!	!LO:TX:t=P:problem=kreska pseudotaktowa	!	!	!	!	!
.	.	2G/	-ri-	.	.	.	.
.	.	1G/	-e	1.d/	.	.	.
=3-	=3-	=3-	=3-	=3-	=3-	=3-	=3-
*	*	*	*ij	*	*	*	*
00r	.	1.d\	Ky-	.	.	00r	.
!	!	!	!	!LO:TX:t=P:problem=kreska pseudotaktowa	!	!	!
.	.	.	.	2B-/	.	.	.
.	.	.	.	1B-/	.	.	.
!	!	!LO:TX:t=P:problem=kreska pseudotaktowa	!	!	!	!	!
.	.	2B-/	-ri-	.	.	.	.
=4-	=4-	=4-	=4-	=4-	=4-	=4-	=4-
.	.	2.B-/	-e	1.f\	.	.	.
!	!	!LO:TX:t=P:problem=kreska pseudotaktowa	!	!	!	!	!
.	.	4c/	.	.	.	.	.
.	.	4d\	.	.	.	.	.
.	.	4e\	.	.	.	.	.
*	*	*2\right	*	*	*	*	*
!	!	!	!	!LO:TX:t=P:problem=kreska pseudotaktowa	!	!	!
.	.	2.f\	.	2d/	.	.	.
=5-	=5-	=5-	=5-	=5-	=5-	=5-	=5-
0r	.	.	.	2d/	.	0r	.
.	.	4e\	.	.	.	.	.
.	.	1d\	.	2f/	.	.	.
!	!	!	!	!LO:TX:t=P:problem=kreska pseudotaktowa	!	!	!
.	.	.	.	1e\	.	.	.
*	*	*custos:d	*	*	*	*	*
!	!	!LO:TX:t=P:problem=kreska pseudotaktowa	!	!	!	!	!
.	.	2c/	.	.	.	.	.
!	!	!LO:PB:g=original	!	!	!	!	!
=6-	=6-	=6-	=6-	=6-	=6-	=6-	=6-
!LO:TX:t=P:problem=kreska pseudotaktowa	!	!LO:TX:t=P:problem=kreska pseudotaktowa	!	!	!	!LO:TX:t=P:problem=kreska pseudotaktowa	!
1r	.	00d\	.	2.d/	.	1.B-/	KY-
!	!	!	!	!LO:TX:t=P:problem=kreska pseudotaktowa	!	!	!
.	.	.	.	4e/	.	.	.
1.B-\	KY-	.	.	2f/	.	.	.
*	*	*	*	*2\right	*	*	*
!	!	!	!	!	!	!LO:TX:t=P:problem=kreska pseudotaktowa	!
.	.	.	.	2.g\	.	2G/	-ri-
=7-	=7-	=7-	=7-	=7-	=7-	=7-	=7-
.	.	.	.	.	.	1G/	-e
*	*	*	*	*custos:b-	*	*	*
.	.	.	.	4a\	.	.	.
!	!	!	!	!LO:LB:g=original	!	!	!
*2\right	*	*	*	*	*	*	*
2G\	-ri-	.	.	2.b-\	.	.	.
!LO:TX:t=P:problem=kreska pseudotaktowa	!	!	!	!	!	!	!
*	*	*	*	*	*	*	*ij
1G\	-e	.	.	.	.	1.d/	KY-
.	.	.	.	4a\	.	.	.
.	.	.	.	4g\	.	.	.
!	!	!	!	!LO:TX:t=P:problem=kreska pseudotaktowa	!	!	!
.	.	.	.	4f\	.	.	.
=8-	=8-	=8-	=8-	=8-	=8-	=8-	=8-
2r	.	00r	.	0g\	.	.	.
!	!	!	!	!	!	!LO:TX:t=P:problem=kreska pseudotaktowa	!
*	*ij	*	*	*	*	*	*
2.G\	KY-	.	.	.	.	2B-/	.
.	.	.	.	.	.	2.B-/	-ri-
4F/	.	.	.	.	.	.	.
4G\	.	.	.	.	.	.	.
!LO:TX:t=P:problem=kreska pseudotaktowa	!	!	!	!	!	!	!
4A\	.	.	.	.	.	4c/	.
=9-	=9-	=9-	=9-	=9-	=9-	=9-	=9-
!	!	!	!	!LO:TX:t=P:problem=kreska pseudotaktowa	!	!	!
2.B-\	-ri-	.	.	1f\	.	4d/	.
.	.	.	.	.	.	4e/	.
!	!	!	!	!	!	!LO:TX:t=P:problem=kreska pseudotaktowa	!
.	.	.	.	.	.	2f/	.
4A\	.	.	.	.	.	.	.
!	!	!	!	!LO:TX:b:t=4	!	!	!
2G/	.	.	.	1r	.	2e/	.
2F/	.	.	.	.	.	1d/	.
=10-	=10-	=10-	=10-	=10-	=10-	=10-	=10-
*lig	*	*	*	*	*	*	*
1E/	-e	1G/	KY-	0r	.	.	.
*	*	*	*	*	*	*custos:d	*
!	!	!	!	!	!	!LO:TX:t=P:problem=kreska pseudotaktowa	!
.	.	.	.	.	.	2c/	.
!LO:TX:t=P:problem=kreska pseudotaktowa	!	!	!	!	!	!	!
!	!	!	!	!	!	!LO:PB:g=original	!
1D/	.	2A/	.	.	.	0.d/	-e
.	.	2F/	.	.	.	.	.
!	!	!LO:TX:t=P:problem=kreska pseudotaktowa	!	!	!	!	!
*Xlig	*	*	*	*	*	*	*
=11-	=11-	=11-	=11-	=11-	=11-	=11-	=11-
!	!	!	!	!	!	!LO:TX:t=P:problem=kreska pseudotaktowa	!
2r	.	1B-/	-ri-	1r	.	.	.
1G\	KY-	.	.	.	.	.	.
.	.	1A/	.	2r	.	.	.
*custos:G	*	*	*	*	*	*	*
!LO:TX:t=P:problem=kreska pseudotaktowa	!	!	!	!LO:TX:t=P:problem=kreska pseudotaktowa	!	!	!
*	*	*	*	*	*ij	*	*
2F/	-ri-	.	.	2a\	KŸ-	.	.
!LO:LB:g=original	!	!	!	!	!	!	!
=12-	=12-	=12-	=12-	=12-	=12-	=12-	=12-
0G\	-e	4G/	.	2b-\	.	0r	.
.	.	4A/	.	.	.	.	.
.	.	4B-/	.	2g\	.	.	.
!	!	!LO:TX:t=P:problem=kreska pseudotaktowa	!	!	!	!	!
.	.	4c/	.	.	.	.	.
!	!	!	!	!LO:TX:t=P:problem=kreska pseudotaktowa	!	!	!
.	.	4d/	.	1b-\	.	.	.
.	.	4G/	.	.	.	.	.
.	.	1g\	-e	.	.	.	.
=13-	=13-	=13-	=13-	=13-	=13-	=13-	=13-
!LO:TX:t=P:problem=kreska pseudotaktowa	!	!	!	!	!	!	!
1D/	.	.	.	1a\	.	2r	.
*	*	*	*	*	*	*2\right	*
!	!	!LO:TX:t=P:problem=kreska pseudotaktowa	!	!	!	!	!
.	.	2f\	.	.	.	2a\	KY-
0r	.	1g\	.	2g\	.	2b-\	.
!	!	!	!	!	!	!LO:TX:t=P:problem=kreska pseudotaktowa	!
.	.	.	.	2.b-\	.	2g\	-ri-
=14-	=14-	=14-	=14-	=14-	=14-	=14-	=14-
!	!	!LO:TX:t=P:problem=kreska pseudotaktowa	!	!	!	!	!
.	.	0d\	KY-	.	.	1b-\	-e
.	.	.	.	4a\	.	.	.
.	.	.	.	1g\	.	.	.
!	!	!	!	!	!	!LO:TX:t=P:problem=kreska pseudotaktowa	!
1D/	KY-	.	.	.	.	1a\	.
!	!	!	!	!LO:TX:t=P:problem=kreska pseudotaktowa	!	!	!
.	.	.	.	2f/	.	.	.
=15-	=15-	=15-	=15-	=15-	=15-	=15-	=15-
2E-X/	-ri-	2B-/	-ri-	1g\	.	1.g\	.
!LO:TX:t=P:problem=kreska pseudotaktowa	!	!	!	!	!	!	!
2C/	.	2.c/	.	.	.	.	.
*	*	*	*	*lig	*	*	*
1E-/	.	.	.	1G/	-ri-	.	.
.	.	4B-/	.	.	.	.	.
!	!	!	!	!	!	!LO:TX:t=P:problem=kreska pseudotaktowa	!
.	.	8c/L	.	.	.	2e-X/	.
.	.	8B-/	.	.	.	.	.
.	.	8A/	.	.	.	.	.
.	.	8G/J	.	.	.	.	.
!	!	!LO:LB:g=original	!	!	!	!	!
=16-	=16-	=16-	=16-	=16-	=16-	=16-	=16-
*	*	*custos:F	*	*	*	*	*
!	!	!LO:TX:t=P:problem=kreska pseudotaktowa	!	!	!	!	!
!	!	!LO:TX:t=P:problem=kreska pseudotaktowa	!	!	!	!	!
*	*	*	*	*col	*	*	*
2.D/	-e	1F/	-e	2.A/	.	1.f\	.
*	*	*	*	*Xlig	*	*	*
!LO:TX:t=P:problem=kreska pseudotaktowa	!	!	!	!LO:TX:t=P:problem=kreska pseudotaktowa	!	!	!
4Eny/	.	.	.	4G/	.	.	.
*	*	*	*	*Xcol	*	*	*
*	*	*	*	*custos:B-	*	*	*
2F/	.	1r	.	2A/	.	.	.
!	!	!	!	!LO:LB:g=original	!	!	!
!	!	!	!	!	!	!LO:TX:t=P:problem=kreska pseudotaktowa	!
1G\	.	.	.	1B-/	.	2d/	.
=17-	=17-	=17-	=17-	=17-	=17-	=17-	=17-
!	!	!	!	!	!	!LO:TX:t=P:problem=kreska pseudotaktowa	!
.	.	0r	.	.	.	0d/	.
4F/	.	.	.	4A/	.	.	.
!	!	!	!	!LO:TX:t=P:problem=kreska pseudotaktowa	!	!	!
4E/	.	.	.	4G/	.	.	.
!LO:TX:t=P:problem=kreska pseudotaktowa	!	!	!	!	!	!	!
2F/	.	.	.	2A/	.	.	.
2G\	.	.	.	2B-/	.	.	.
=18-	=18-	=18-	=18-	=18-	=18-	=18-	=18-
!LO:TX:t=P:problem=kreska pseudotaktowa	!	!LO:TX:t=P:problem=kreska pseudotaktowa	!	!LO:TX:t=P:problem=kreska pseudotaktowa	!	!	!
1D/	.	1.F/	KY-	0.A/	-e	2r	.
.	.	.	.	.	.	2.d/	KY-
2r	.	.	.	.	.	.	.
.	.	.	.	.	.	4e/	.
!	!	!LO:TX:t=P:problem=kreska pseudotaktowa	!	!	!	!	!
2.D/	KY-	2F/	-ri-	.	.	4f/	.
!	!	!	!	!	!	!LO:TX:t=P:problem=kreska pseudotaktowa	!
.	.	.	.	.	.	4g\	.
=19-	=19-	=19-	=19-	=19-	=19-	=19-	=19-
.	.	4F/	-e	.	.	2.a\	-ri-
*	*	*	*Xij	*	*	*	*
4E/	.	4G/	.	.	.	.	.
4F/	.	4A/	.	.	.	.	.
!LO:TX:t=P:problem=kreska pseudotaktowa	!	!LO:TX:t=P:problem=kreska pseudotaktowa	!	!	!	!LO:TX:t=P:problem=kreska pseudotaktowa	!
4G\	.	4B-/	.	.	.	4g\	.
*custos:B-	*	*	*	*	*	*	*
2A\	.	2c/	.	0r	.	4f/	.
*	*	*	*	*	*	*custos:g	*
.	.	.	.	.	.	4e/	.
!LO:LB:g=original	!	!	!	!	!	!LO:LB:g=original	!
1B-\	-ri-	1d\	e-	.	.	2.g\	.
=20-	=20-	=20-	=20-	=20-	=20-	=20-	=20-
.	.	.	.	.	.	4f\	.
!LO:TX:t=P:problem=kreska pseudotaktowa	!	!LO:TX:t=P:problem=kreska pseudotaktowa	!	!	!	!LO:TX:t=P:problem=kreska pseudotaktowa	!
2A\	.	2c/	.	.	.	2.f\	.
1G\	-e	1B-/	.	2r	.	.	.
.	.	.	.	.	.	4e/	.
!	!	!	!	!LO:TX:t=P:problem=kreska pseudotaktowa	!	!	!
.	.	.	.	2B-/	KŸ-	4e/	-e
.	.	.	.	.	.	4d/	.
=21-	=21-	=21-	=21-	=21-	=21-	=21-	=21-
!LO:TX:t=P:problem=kreska pseudotaktowa	!	!	!	!	!	!LO:TX:t=P:problem=kreska pseudotaktowa	!
1F\	.	1A/	-leii-	1c/	.	0f\	.
!	!	!LO:TX:t=P:problem=kreska pseudotaktowa	!	!LO:TX:t=P:problem=kreska pseudotaktowa	!	!	!
2r	.	0F/	-ſon	0d/	.	.	.
2.D/	KY-	.	.	.	.	.	.
=22-	=22-	=22-	=22-	=22-	=22-	=22-	=22-
.	.	.	.	.	.	2r	.
4C/	.	.	.	.	.	.	.
4D/	.	.	.	.	.	2.f\	KY-
!LO:TX:t=P:problem=kreska pseudotaktowa	!	!	!	!	!	!	!
4E/	.	.	.	.	.	.	.
2.F/	-ri-	2.A/	.	2c/	.	.	.
.	.	.	.	.	.	4e/	.
!	!	!	!	!	!	!LO:TX:t=P:problem=kreska pseudotaktowa	!
.	.	.	.	2f\	-ri-	2d/	.
4D/	.	4F/	.	.	.	.	.
=23-	=23-	=23-	=23-	=23-	=23-	=23-	=23-
2E/	.	2G/	.	2e/	.	2c/	.
!	!	!LO:TX:t=P:problem=kreska pseudotaktowa	!	!LO:TX:t=P:problem=kreska pseudotaktowa	!	!	!
2F/	.	2A/	.	2.d/	.	1f\	-ri-
*	*	*lig	*	*	*	*	*
1G\	-e	1B-/	.	.	.	.	.
.	.	.	.	4c/	.	.	.
.	.	.	.	1B-/	.	2e/	.
=24-	=24-	=24-	=24-	=24-	=24-	=24-	=24-
!LO:TX:t=P:problem=kreska pseudotaktowa	!	!	!	!	!	!LO:TX:t=P:problem=kreska pseudotaktowa	!
1F\	.	1c\	.	.	.	1f\	-e
.	.	.	.	2A/	.	.	.
!	!	!	!	!LO:TX:t=P:problem=kreska pseudotaktowa	!	!	!
*	*	*Xlig	*	*	*	*	*
2r	.	2.B-/	.	1B-/	-e	2r	.
2.B-\	KY-	.	.	.	.	2f\	KY-
.	.	4c/	.	.	.	.	.
=25-	=25-	=25-	=25-	=25-	=25-	=25-	=25-
*	*	*custos:b-	*	*	*	*	*
!	!	!LO:TX:t=P:problem=kreska pseudotaktowa	!	!	!	!LO:TX:t=P:problem=kreska pseudotaktowa	!
.	.	1d\	.	2r	.	1g\	.
4A\	.	.	.	.	.	.	.
!LO:TX:t=P:problem=kreska pseudotaktowa	!	!	!	!LO:TX:t=P:problem=kreska pseudotaktowa	!	!	!
2G\	-ri-	.	.	2B-/	KŸ-	.	.
*	*	*	*	*custos:d	*	*	*
!	!	!	!	!LO:TX:t=P:problem=kreska pseudotaktowa	!	!	!
1F\	-e	0r	.	1c/	.	1.a\	.
!	!	!	!	!LO:LB:g=original	!	!	!
=26-	=26-	=26-	=26-	=26-	=26-	=26-	=26-
!LO:TX:t=P:problem=kreska pseudotaktowa	!	!	!	!	!	!	!
1D/	.	.	.	1d/	-ri-	.	.
!	!	!	!	!	!	!LO:TX:t=P:problem=kreska pseudotaktowa	!
.	.	.	.	.	.	2f\	.
!	!	!	!	!LO:TX:t=P:problem=kreska pseudotaktowa	!	!	!
0r	.	2r	.	1d/	-e	2.b-\	-ri-
!	!	!LO:LB:g=original	!	!	!	!	!
!	!	!LO:TX:t=P:problem=kreska pseudotaktowa	!	!	!	!	!
*	*	*	*ij	*	*	*	*
.	.	2B-/	KY-	.	.	.	.
*	*	*	*	*	*	*custos:g	*
!	!	!	!	!	!	!LO:TX:t=P:problem=kreska pseudotaktowa	!
.	.	.	.	.	.	4a\	.
!	!	!	!	!	!	!LO:LB:g=original	!
=27-	=27-	=27-	=27-	=27-	=27-	=27-	=27-
*	*	*lig	*	*	*	*	*
.	.	1c\	.	0r	.	1g\	.
!	!	!	!	!	!	!LO:TX:t=P:problem=kreska pseudotaktowa	!
2r	.	1.d\	.	.	.	1f\	-e
2F/	KY-	.	.	.	.	.	.
!LO:TX:t=P:problem=kreska pseudotaktowa	!	!	!	!	!	!	!
*	*	*Xlig	*	*	*	*	*
=28-	=28-	=28-	=28-	=28-	=28-	=28-	=28-
*custos:A	*	*	*	*	*	*	*
1G\	.	.	.	2r	.	00r	.
!	!	!LO:TX:t=P:problem=kreska pseudotaktowa	!	!LO:TX:t=P:problem=kreska pseudotaktowa	!	!	!
.	.	2d\	-ri-	2B-/	KŸ-	.	.
!LO:LB:g=original	!	!	!	!	!	!	!
1A\	.	2f\	-e	0c/	.	.	.
.	.	4e\	.	.	.	.	.
!	!	!LO:TX:t=P:problem=kreska pseudotaktowa	!	!	!	!	!
.	.	4d\	.	.	.	.	.
=29-	=29-	=29-	=29-	=29-	=29-	=29-	=29-
2.A\	-ri-	2e\	.	.	.	.	.
.	.	1.f\	e-	.	.	.	.
!LO:TX:t=P:problem=kreska pseudotaktowa	!	!	!	!	!	!	!
4F/	.	.	.	.	.	.	.
2B-\	.	.	.	2d/	-ri-	.	.
!	!	!	!	!LO:TX:t=P:problem=kreska pseudotaktowa	!	!	!
2A\	.	.	.	2c/	.	.	.
=30-	=30-	=30-	=30-	=30-	=30-	=30-	=30-
2G\	.	2e-X\	.	2B-/	.	2r	.
!	!	!LO:TX:t=P:problem=kreska pseudotaktowa	!	!	!	!LO:TX:t=P:problem=kreska pseudotaktowa	!
2F/	.	2.d\	-le-	2A/	.	2f\	KY-
!	!	!	!	!LO:TX:t=P:problem=kreska pseudotaktowa	!	!	!
1E/	-e	.	.	1G/	-e	1g\	.
.	.	4c/	.	.	.	.	.
.	.	4c/	-ii-	.	.	.	.
!	!	!LO:TX:t=P:problem=kreska pseudotaktowa	!	!	!	!	!
.	.	4B-/	.	.	.	.	.
=31-	=31-	=31-	=31-	=31-	=31-	=31-	=31-
!LO:TX:t=P:problem=kreska pseudotaktowa	!	!LO:TX:t=P:problem=kreska pseudotaktowa	!	!	!	!	!
0.D/	.	1d\	-ſon	2r	.	2.a\	-ri-
.	.	.	.	2.d/	KŸ-	.	.
!	!	!	!	!	!	!LO:TX:t=P:problem=kreska pseudotaktowa	!
.	.	.	.	.	.	4g\	.
!	!	!LO:TX:t=P:problem=kreska pseudotaktowa	!	!	!	!	!
.	.	1r	.	.	.	4f/	.
.	.	.	.	4c/	.	4e/	.
!	!	!	!	!	!	!LO:TX:t=P:problem=kreska pseudotaktowa	!
.	.	.	.	4d/	.	2f/	.
!	!	!	!	!LO:TX:t=P:problem=kreska pseudotaktowa	!	!	!
.	.	.	.	4e/	.	.	.
=32-	=32-	=32-	=32-	=32-	=32-	=32-	=32-
.	.	1F/	KY-	2f\	.	2d/	.
.	.	.	.	1d/	.	2f/	.
*	*	*lig	*	*	*	*	*
!	!	!	!	!	!	!LO:TX:t=P:problem=kreska pseudotaktowa	!
0r	.	1G/	-ri-	.	.	0e\	-e
.	.	.	.	4c/	.	.	.
!	!	!	!	!LO:TX:t=P:problem=kreska pseudotaktowa	!	!	!
.	.	.	.	4B-/	.	.	.
=33-	=33-	=33-	=33-	=33-	=33-	=33-	=33-
.	.	1A/	.	1c/	-ri-	.	.
*	*	*Xlig	*	*	*	*	*
*	*	*custos:G	*	*	*	*	*
!	!	!LO:TX:t=P:problem=kreska pseudotaktowa	!	!	!	!	!
1BB-/	KY-	1B-/	-e	2d/	.	2d/	.
!	!	!	!	!LO:TX:t=P:problem=kreska pseudotaktowa	!	!	!
.	.	.	.	2f/	.	2d/	KY-
!	!	!LO:LB:g=original	!	!	!	!	!
=34-	=34-	=34-	=34-	=34-	=34-	=34-	=34-
*lig	*	*	*	*	*	*	*
*	*	*	*	*custos:d	*	*	*
!	!	!	!	!	!	!LO:TX:t=P:problem=kreska pseudotaktowa	!
1C/	.	2.G/	e-	1e\	.	1g\	.
!	!	!LO:TX:t=P:problem=kreska pseudotaktowa	!	!	!	!	!
.	.	4A/	.	.	.	.	.
!	!	!	!	!LO:PB:g=original	!	!	!
1.D/	.	2B-/	-le-	1.d/	.	2.f\	-ri-
.	.	2A/	-i-	.	.	.	.
.	.	.	.	.	.	4g\	.
*Xlig	*	*	*	*	*	*	*
=35-	=35-	=35-	=35-	=35-	=35-	=35-	=35-
!	!	!LO:TX:t=P:problem=kreska pseudotaktowa	!	!	!	!	!
.	.	1A/	-ſon	.	.	2a\	.
*	*	*	*Xij	*	*	*	*
!LO:TX:t=P:problem=kreska pseudotaktowa	!	!	!	!LO:TX:t=P:problem=kreska pseudotaktowa	!	!LO:TX:t=P:problem=kreska pseudotaktowa	!
2D/	-ri-	.	.	2f/	.	2d/	-e
*	*	*	*	*	*	*	*Xij
1D/	-e	2r	.	2d/	.	2.f\	e-
*	*Xij	*	*	*	*	*	*
.	.	1A/	e-	1f\	.	.	.
.	.	.	.	.	.	4g\	-leii-
=36-	=36-	=36-	=36-	=36-	=36-	=36-	=36-
*	*	*	*	*	*	*custos:b-	*
2.D/	e-	.	.	.	.	2a\	.
!	!	!	!	!	!	!LO:LB:g=original	!
!	!	!LO:TX:t=P:problem=kreska pseudotaktowa	!	!LO:TX:t=P:problem=kreska pseudotaktowa	!	!LO:TX:t=P:problem=kreska pseudotaktowa	!
.	.	2F/	-le-	2f/	-e	2b-\	-ſon
4E/	-le-	.	.	.	.	.	.
*	*	*	*	*	*Xij	*	*ij
2F/	-ii-	2A/	-ii-	2f/	e-	2a\	e-
2G/	-ſon	2B-/	-ſon,	2d/	-le-	1g\	-le-
=37-	=37-	=37-	=37-	=37-	=37-	=37-	=37-
1D/	.	1A/	.	1d/	-ii-	.	.
.	.	.	.	.	.	2f\	-ii-
*custos:G	*	*	*	*	*	*	*
1Gl\	.	1Gl/;	.	1B-l/;	-ſon:	1gl\;	-ſon
*	*	*	*	*	*	*	*Xij
!LO:PB:g=original	!	!	!	!	!	!	!
=38||-	=38||-	=38||-	=38||-	=38||-	=38||-	=38||-	=38||-
*	*	*M2/1	*	*M2/1	*	*M2/1	*
*	*	*met(C|)	*	*met(C|)	*	*met(C|)	*
00r	.	00r	.	0r	.	1G/	Chri-
.	.	.	.	.	.	2G/	-ſte
!	!	!	!	!	!	!LO:TX:t=P:problem=kreska pseudotaktowa	!
.	.	.	.	.	.	2A/	.
=39-	=39-	=39-	=39-	=39-	=39-	=39-	=39-
!	!	!LO:TX:a:t=7	!	!LO:TX:t=P:problem=kreska pseudotaktowa	!	!	!
.	.	.	.	1G/	Chri-	2B-/	.
.	.	.	.	.	.	2G/	.
.	.	.	.	2G/	-ſte	2B-/	.
!	!	!	!	!LO:TX:t=P:problem=kreska pseudotaktowa	!	!LO:TX:t=P:problem=kreska pseudotaktowa	!
.	.	.	.	2A/	.	2c/	.
=40-	=40-	=40-	=40-	=40-	=40-	=40-	=40-
00r	.	0r	.	2B-/	.	2.d/	.
.	.	.	.	4G/	.	.	.
!	!	!	!	!LO:TX:t=P:problem=kreska pseudotaktowa	!	!	!
.	.	.	.	4A/	.	4c/	.
.	.	.	.	4B-/	.	4d/	.
.	.	.	.	4c/	.	4e/	.
*	*	*	*	*custos:c	*	*	*
.	.	.	.	1d/	.	4f/	.
.	.	.	.	.	.	4d/	.
=41-	=41-	=41-	=41-	=41-	=41-	=41-	=41-
*	*	*	*	*	*	*custos:d	*
!	!	!	!	!	!	!LO:TX:t=P:problem=kreska pseudotaktowa	!
!	!	!LO:TX:t=P:problem=kreska pseudotaktowa	!	!	!	!	!
.	.	1r	.	.	.	1e\	.
!	!	!	!	!LO:LB:g=original	!	!	!
!	!	!	!	!LO:TX:t=P:problem=kreska pseudotaktowa	!	!	!
.	.	.	.	2c/	.	.	.
!	!	!	!	!	!	!LO:PB:g=original	!
!	!	!	!	!	!	!LO:TX:t=P:problem=kreska pseudotaktowa	!
.	.	1G/	Chri-	2d/	.	00d\	.
.	.	.	.	1b-\	.	.	.
=42-	=42-	=42-	=42-	=42-	=42-	=42-	=42-
!LO:TX:t=P:problem=kreska pseudotaktowa	!	!	!	!	!	!	!
1r	.	2G/	-ſte	.	.	.	.
!	!	!LO:TX:t=P:problem=kreska pseudotaktowa	!	!LO:TX:t=P:problem=kreska pseudotaktowa	!	!	!
.	.	2A/	.	2a\	.	.	.
1G\	Chri-	2B-/	.	1.g\	.	.	.
*	*	*custos:B-	*	*	*	*	*
!	!	!LO:TX:t=P:problem=kreska pseudotaktowa	!	!	!	!	!
.	.	2G/	.	.	.	.	.
!	!	!LO:PB:g=original	!	!	!	!	!
=43-	=43-	=43-	=43-	=43-	=43-	=43-	=43-
2G/	-ſte	2B-/	.	.	.	.	.
!LO:TX:t=P:problem=kreska pseudotaktowa	!	!LO:TX:t=P:problem=kreska pseudotaktowa	!	!LO:TX:t=P:problem=kreska pseudotaktowa	!	!	!
2A\	.	2c/	.	2.f\	.	.	.
2.B-\	.	2.d/	e-	.	.	1r	.
.	.	.	.	4d/	.	.	.
.	.	.	.	1g\	.	.	.
!LO:TX:t=P:problem=kreska pseudotaktowa	!	!	!	!	!	!	!
4A\	.	4c/	.	.	.	.	.
=44-	=44-	=44-	=44-	=44-	=44-	=44-	=44-
4B-\	.	4d/	.	.	.	0r	.
4c\	.	4eny\	.	.	.	.	.
!	!	!	!	!LO:TX:t=P:problem=kreska pseudotaktowa	!	!	!
2.d\	.	4f\	.	2f\	.	.	.
!	!	!LO:TX:t=P:problem=kreska pseudotaktowa	!	!	!	!	!
.	.	4d\	.	.	.	.	.
.	.	1e\	-leii-	1g\	.	.	.
8c\L	.	.	.	.	.	.	.
8B-\J	.	.	.	.	.	.	.
!LO:TX:t=P:problem=kreska pseudotaktowa	!	!	!	!	!	!	!
2c\	.	.	.	.	.	.	.
=45-	=45-	=45-	=45-	=45-	=45-	=45-	=45-
!	!	!LO:TX:t=P:problem=kreska pseudotaktowa	!	!LO:TX:t=P:problem=kreska pseudotaktowa	!	!LO:TX:t=P:problem=kreska pseudotaktowa	!
*	*	*	*	*	*	*	*ij
1d\	.	1d\	-ſon,	1f\	.	1d/	Chri-
!LO:TX:t=P:problem=kreska pseudotaktowa	!	!	!	!	!	!	!
00D/	.	1r	.	1r	.	2d/	-ſte
!	!	!	!	!	!	!LO:TX:t=P:problem=kreska pseudotaktowa	!
.	.	.	.	.	.	2e/	.
=46-	=46-	=46-	=46-	=46-	=46-	=46-	=46-
*	*	*	*ij	*	*	*	*
.	.	1.d\	Chri-	0r	.	2f/	.
.	.	.	.	.	.	2d/	.
.	.	.	.	.	.	2f/	.
!	!	!LO:TX:t=P:problem=kreska pseudotaktowa	!	!	!	!	!
.	.	2e\	.	.	.	2g/	.
=47-	=47-	=47-	=47-	=47-	=47-	=47-	=47-
!	!	!	!	!LO:TX:t=P:problem=kreska pseudotaktowa	!	!LO:TX:t=P:problem=kreska pseudotaktowa	!
*	*	*	*	*	*ij	*	*
.	.	2.f\	.	1d/	Chri-	00.a\	.
.	.	8e\L	.	.	.	.	.
.	.	8d\J	.	.	.	.	.
!	!	!LO:TX:t=P:problem=kreska pseudotaktowa	!	!	!	!	!
1r	.	2c/	.	2e/	.	.	.
.	.	1d\	.	1f\	.	.	.
=48-	=48-	=48-	=48-	=48-	=48-	=48-	=48-
!LO:TX:t=P:problem=kreska pseudotaktowa	!	!	!	!	!	!	!
1r	.	.	.	.	.	.	.
.	.	4c/	.	4e/	.	.	.
*	*	*custos:c	*	*	*	*	*
!	!	!LO:TX:t=P:problem=kreska pseudotaktowa	!	!LO:TX:t=P:problem=kreska pseudotaktowa	!	!	!
.	.	4B-/	.	4d/	.	.	.
!	!	!LO:LB:g=original	!	!	!	!	!
2r	.	2c/	-ſte	2e/	.	.	.
!LO:TX:t=P:problem=kreska pseudotaktowa	!	!	!	!	!	!	!
*	*ij	*	*	*	*	*	*
2D/	Chri-	1d\	e-	1f\	.	.	.
=49-	=49-	=49-	=49-	=49-	=49-	=49-	=49-
2D/	-ſte	.	.	.	.	.	.
2E/	.	4c/	.	4e/	.	.	.
*	*	*	*	*custos:c	*	*	*
!	!	!LO:TX:t=P:problem=kreska pseudotaktowa	!	!LO:TX:t=P:problem=kreska pseudotaktowa	!	!	!
.	.	4B-/	.	4d/	.	.	.
!	!	!	!	!LO:LB:g=original	!	!	!
2F/	.	2A/	.	2c/	.	.	.
*custos:F	*	*	*	*	*	*	*
!LO:TX:t=P:problem=kreska pseudotaktowa	!	!	!	!LO:TX:t=P:problem=kreska pseudotaktowa	!	!	!
2D/	.	2.f\	-le-	2d/	.	.	.
!LO:LB:g=original	!	!	!	!	!	!	!
=50-	=50-	=50-	=50-	=50-	=50-	=50-	=50-
2.F/	.	.	.	2A/	-ſte	2r	.
.	.	4e\	.	.	.	.	.
.	.	1d\	.	2f/	Chri-	1a\	Chri-
4G\	.	.	.	.	.	.	.
*	*	*	*	*lig	*	*	*
1A\	.	.	.	1e\	.	.	.
!	!	!	!	!	!	!LO:TX:t=P:problem=kreska pseudotaktowa	!
!	!	!LO:TX:t=P:problem=kreska pseudotaktowa	!	!	!	!LO:TX:t=P:problem=poprawka wysokości	!
.	.	2c/	-ii-	.	.	2a/	-ſte
*	*	*	*	*	*	*	*Xij
=51-	=51-	=51-	=51-	=51-	=51-	=51-	=51-
!	!	!LO:TX:t=P:problem=kreska pseudotaktowa	!	!	!	!	!
1.D/	Chri-	0d\	-ſon,	1.a\	.	2f/	.
.	.	.	.	.	.	2d/	.
.	.	.	.	.	.	2f/	.
*	*	*	*	*Xlig	*	*	*
!LO:TX:t=P:problem=kreska pseudotaktowa	!	!	!	!LO:TX:t=P:problem=kreska pseudotaktowa	!	!LO:TX:t=P:problem=kreska pseudotaktowa	!
2E/	.	.	.	2g\	.	2g\	.
=52-	=52-	=52-	=52-	=52-	=52-	=52-	=52-
*	*	*	*	*	*	*custos:b-	*
2F/	.	2r	.	1f\	.	2a\	.
!	!	!	!	!	!	!LO:LB:g=original	!
!	!	!LO:TX:t=P:problem=kreska pseudotaktowa	!	!	!	!	!
2G/	.	2d\	Chri-	.	.	2.b-\	e-
1A\	.	2c/	-ſte	2e/	.	.	.
.	.	.	.	.	.	4a\	-leii-
!	!	!	!	!LO:TX:t=P:problem=kreska pseudotaktowa	!	!	!
.	.	2.f\	e-	2c/	.	1a\	-ſon;
=53-	=53-	=53-	=53-	=53-	=53-	=53-	=53-
*	*	*	*	*lig	*	*	*
1B-\	.	.	.	1d/	.	.	.
.	.	4e\	.	.	.	.	.
.	.	1d\	-le-	.	.	2g\	.
!	!	!	!	!	!	!LO:TX:t=P:problem=kreska pseudotaktowa	!
1A\	.	.	.	1e\	.	1a\	.
.	.	2c/	-ii-	.	.	.	.
!	!	!LO:TX:t=P:problem=kreska pseudotaktowa	!	!	!	!	!
*	*	*	*	*Xlig	*	*	*
=54-	=54-	=54-	=54-	=54-	=54-	=54-	=54-
!LO:TX:t=P:problem=kreska pseudotaktowa	!	!	!	!	!	!	!
1D/	-ſte	0d\	-ſon	2f/	.	2r	.
!	!	!	!	!LO:TX:t=P:problem=kreska pseudotaktowa	!	!	!
*	*	*	*	*	*	*	*ij
.	.	.	.	2d/	.	1a\	Chri-
2r	.	.	.	2.f\	.	.	.
!	!	!	!	!	!	!LO:TX:t=P:problem=kreska pseudotaktowa	!
1d\	Chri-	.	.	.	.	2a\	-ſte
.	.	.	.	4g\	.	.	.
=55-	=55-	=55-	=55-	=55-	=55-	=55-	=55-
!	!	!	!	!LO:TX:t=P:problem=kreska pseudotaktowa	!	!	!
.	.	0r	.	1a\	-ſte	1f\	e-
!LO:TX:t=P:problem=kreska pseudotaktowa	!	!	!	!	!	!	!
2d\	-ſte	.	.	.	.	.	.
2.c\	.	.	.	0r	.	2g\	.
!	!	!	!	!	!	!LO:TX:t=P:problem=kreska pseudotaktowa	!
.	.	.	.	.	.	2a\	.
!LO:TX:t=P:problem=kreska pseudotaktowa	!	!	!	!	!	!	!
4A\	.	.	.	.	.	.	.
=56-	=56-	=56-	=56-	=56-	=56-	=56-	=56-
!	!	!LO:TX:t=P:problem=kreska pseudotaktowa	!	!LO:TX:t=P:problem=kreska pseudotaktowa	!	!	!
4B-\	.	1r	.	.	.	4g\	.
4A\	.	.	.	.	.	4f\	.
1d\	.	.	.	.	.	4e/	.
.	.	.	.	.	.	4d/	.
!	!	!LO:TX:t=P:problem=kreska pseudotaktowa	!	!	!	!	!
.	.	1A/	Chri-	1a\	Chri-	1e\	-leii-
!LO:TX:t=P:problem=kreska pseudotaktowa	!	!	!	!	!	!	!
2c\	.	.	.	.	.	.	.
=57-	=57-	=57-	=57-	=57-	=57-	=57-	=57-
*custos:A	*	*custos:G	*	*	*	*	*
!	!	!	!	!	!	!LO:TX:t=P:problem=kreska pseudotaktowa	!
1d\	.	2B-/	-ſte	2f\	.	1d/	-ſon
!	!	!LO:LB:g=original	!	!	!	!	!
.	.	4G/	e-	2.g\	.	.	.
!	!	!LO:TX:t=P:problem=kreska pseudotaktowa	!	!	!	!	!
.	.	4A/	.	.	.	.	.
1r	.	4B-/	.	.	.	1r	.
.	.	4c/	.	4f\	.	.	.
*	*	*	*	*custos:e	*	*	*
!	!	!	!	!LO:TX:t=P:problem=kreska pseudotaktowa	!	!	!
.	.	1d\	-le-	2d/	.	.	.
!LO:LB:g=original	!	!	!	!LO:LB:g=original	!	!	!
=58-	=58-	=58-	=58-	=58-	=58-	=58-	=58-
!LO:TX:t=P:problem=kreska pseudotaktowa	!	!	!	!	!	!	!
1A\	Chri-	.	.	1e\	-ſte	1a\	Chri-
!	!	!LO:TX:t=P:problem=kreska pseudotaktowa	!	!	!	!	!
.	.	2c/	-ii-	.	.	.	.
!	!	!LO:TX:t=P:problem=kreska pseudotaktowa	!	!LO:TX:t=P:problem=kreska pseudotaktowa	!	!	!
2.B-\	.	1d\	-ſon	1d/	.	2f\	-ſte
!	!	!	!	!	!	!LO:TX:t=P:problem=kreska pseudotaktowa	!
.	.	.	.	.	.	2g\	.
8A\L	.	.	.	.	.	.	.
8G\J	.	.	.	.	.	.	.
=59-	=59-	=59-	=59-	=59-	=59-	=59-	=59-
*	*	*	*	*	*	*custos:g	*
2F/	.	1r	.	1r	.	2a\	e-
!	!	!	!	!	!	!LO:LB:g=original	!
2A\	.	.	.	.	.	4g\	.
!	!	!	!	!	!	!LO:TX:t=P:problem=kreska pseudotaktowa	!
.	.	.	.	.	.	4f\	.
!	!	!	!	!LO:TX:t=P:problem=kreska pseudotaktowa	!	!	!
1G\	-ſte	2r	.	1g\	Chri-	4e/	.
.	.	.	.	.	.	4d/	.
!	!	!LO:TX:t=P:problem=kreska pseudotaktowa	!	!	!	!LO:TX:t=P:problem=kreska pseudotaktowa	!
.	.	2B-/	Chri-	.	.	2e/	.
=60-	=60-	=60-	=60-	=60-	=60-	=60-	=60-
!LO:TX:t=P:problem=kreska pseudotaktowa	!	!	!	!	!	!	!
1F\	.	1c\	.	2.a\	.	1f\	.
!	!	!	!	!LO:TX:t=P:problem=kreska pseudotaktowa	!	!	!
.	.	.	.	4g\	.	.	.
1r	.	4d/	.	4f\	.	2B-/	-le-
.	.	4c/	.	4e\	.	.	.
.	.	1f\	-ſte	2f\	.	2d/	-ii-
=61-	=61-	=61-	=61-	=61-	=61-	=61-	=61-
!	!	!	!	!	!	!LO:TX:t=P:problem=kreska pseudotaktowa	!
1C/	Chri-	.	.	1g\	.	1c/	-ſon
!	!	!LO:TX:t=P:problem=kreska pseudotaktowa	!	!	!	!	!
.	.	2e\	e-	.	.	.	.
!	!	!	!	!LO:TX:t=P:problem=kreska pseudotaktowa	!	!LO:TX:a:t=4	!
2D/	.	2.f\	-le-	0f\	-ſte	1r	.
4BB-/	.	.	.	.	.	.	.
!LO:TX:t=P:problem=kreska pseudotaktowa	!	!	!	!	!	!	!
4C/	.	4e\	.	.	.	.	.
=62-	=62-	=62-	=62-	=62-	=62-	=62-	=62-
4D/	.	4d\	.	.	.	0r	.
4E/	.	4c/	.	.	.	.	.
!	!	!LO:TX:t=P:problem=kreska pseudotaktowa	!	!	!	!	!
4F/	.	2d\	.	.	.	.	.
4D/	.	.	.	.	.	.	.
2E/	.	2c/	.	1r	.	.	.
!LO:TX:t=P:problem=kreska pseudotaktowa	!	!	!	!	!	!	!
2D/	.	1B-/	.	.	.	.	.
=63-	=63-	=63-	=63-	=63-	=63-	=63-	=63-
!	!	!	!	!	!	!LO:TX:t=P:problem=kreska pseudotaktowa	!
1C/	.	.	.	1c/	Chri-	1r	.
*	*	*custos:B-	*	*	*	*	*
!	!	!LO:TX:t=P:problem=kreska pseudotaktowa	!	!	!	!	!
.	.	2A/	-ii-	.	.	.	.
!	!	!LO:LB:g=original	!	!	!	!	!
!	!	!	!	!LO:TX:t=P:problem=kreska pseudotaktowa	!	!	!
1BB-/	.	1B-/	-ſon	1d/	.	2r	.
*	*	*	*Xij	*	*	*	*
.	.	.	.	.	.	2f\	Chri -
=64-	=64-	=64-	=64-	=64-	=64-	=64-	=64-
!	!	!LO:TX:t=P:problem=kreska pseudotaktowa	!	!	!	!LO:TX:t=P:problem=kreska pseudotaktowa	!
1E/	-ſte	1G/	.	2B-/	.	1g\	.
.	.	.	.	2G/	.	.	.
*custos:G	*	*	*	*	*	*	*
!LO:TX:t=P:problem=kreska pseudotaktowa	!	!	!	!LO:TX:t=P:problem=kreska pseudotaktowa	!	!	!
1D/	.	1F/	.	0d/	.	2a\	.
.	.	.	.	.	.	2f/	-ſte
!LO:LB:g=original	!	!	!	!	!	!	!
=65-	=65-	=65-	=65-	=65-	=65-	=65-	=65-
1.G\	Chri-	2.B-/	e-	.	.	4g\	e-
.	.	.	.	.	.	4f\	.
.	.	.	.	.	.	4g\	.
!	!	!LO:TX:t=P:problem=kreska pseudotaktowa	!	!	!	!LO:TX:t=P:problem=kreska pseudotaktowa	!
.	.	4c/	-le-	.	.	4a\	.
.	.	4d/	-ii-	2B-/	.	2b-\	.
.	.	4B-/	.	.	.	.	.
1F\	.	2.c/	.	1f\	.	2.a\	-le-
=66-	=66-	=66-	=66-	=66-	=66-	=66-	=66-
.	.	4B-/	.	.	.	4g\	.
!LO:TX:t=P:problem=kreska pseudotaktowa	!	!	!	!LO:TX:t=P:problem=kreska pseudotaktowa	!	!	!
2G\	.	4A/	.	2d/	.	1g\	.
!	!	!LO:TX:t=P:problem=kreska pseudotaktowa	!	!	!	!	!
.	.	4G/	.	.	.	.	.
!	!	!LO:TX:t=P:problem=kreska pseudotaktowa	!	!	!	!	!
1D/	.	1A/	-ſon,	1d/	-ſte	.	.
*	*	*	*	*	*Xij	*	*
*	*	*	*	*	*	*custos:g	*
!	!	!	!	!	!	!LO:TX:t=P:problem=kreska pseudotaktowa	!
.	.	.	.	.	.	2f/	-ii-
!	!	!	!	!	!	!LO:LB:g=original	!
=67-	=67-	=67-	=67-	=67-	=67-	=67-	=67-
*	*	*	*	*custos:b-	*	*	*
!	!	!	!	!LO:TX:t=P:problem=kreska pseudotaktowa	!	!LO:TX:t=P:problem=kreska pseudotaktowa	!
1.G\	.	2r	.	1B-/	.	1g\	-ſon
*	*	*	*ij	*	*	*	*
.	.	2.G/	e-	.	.	.	.
!	!	!	!	!LO:PB:g=original	!	!	!
.	.	.	.	0b-\	.	1r	.
.	.	4A/	.	.	.	.	.
!LO:TX:t=P:problem=kreska pseudotaktowa	!	!	!	!	!	!	!
2G\	-ſte	4B-/	.	.	.	.	.
!	!	!LO:TX:t=P:problem=kreska pseudotaktowa	!	!	!	!	!
.	.	4c/	.	.	.	.	.
=68-	=68-	=68-	=68-	=68-	=68-	=68-	=68-
2.B-\	.	4d\	.	.	.	1G/	-Chri-
.	.	4c\	.	.	.	.	.
.	.	4d\	.	.	.	.	.
!	!	!LO:TX:t=P:problem=kreska pseudotaktowa	!	!	!	!	!
8A\L	.	4e\	.	.	.	.	.
!LO:TX:t=P:problem=kreska pseudotaktowa	!	!	!	!	!	!	!
8G\J	.	.	.	.	.	.	.
!	!	!	!	!LO:TX:t=P:problem=kreska pseudotaktowa	!	!	!
4F/	.	1f\	.	1a\	.	4A/	-ſte
4G\	.	.	.	.	.	4B-/	.
4A\	.	.	.	.	.	4c/	.
!LO:TX:t=P:problem=kreska pseudotaktowa	!	!	!	!	!	!LO:TX:t=P:problem=kreska pseudotaktowa	!
4F/	.	.	.	.	.	4A/	.
=69-	=69-	=69-	=69-	=69-	=69-	=69-	=69-
*	*	*custos:d	*	*	*	*	*
2G/	.	2e\	.	1r	.	2B-/	e-
!	!	!LO:PB:g=original	!	!	!	!	!
!	!	!LO:TX:t=P:problem=kreska pseudotaktowa	!	!	!	!	!
2F/	.	2.d/	-le-	.	.	2A/	.
1E/	.	.	.	1g\	Chri-	1G/	-leii-
.	.	4c/	.	.	.	.	.
.	.	4c/	.	.	.	.	.
!	!	!LO:TX:t=P:problem=kreska pseudotaktowa	!	!	!	!	!
.	.	4B-/	.	.	.	.	.
=70-	=70-	=70-	=70-	=70-	=70-	=70-	=70-
!LO:TX:t=P:problem=kreska pseudotaktowa	!	!	!	!	!	!LO:TX:t=P:problem=kreska pseudotaktowa	!
1D/	.	1d\	.	4f\	.	1A/	-ſon
.	.	.	.	4g\	.	.	.
.	.	.	.	4a\	-ſte	.	.
!	!	!	!	!LO:TX:t=P:problem=kreska pseudotaktowa	!	!	!
.	.	.	.	4f/	.	.	.
!	!	!LO:TX:t=P:problem=kreska pseudotaktowa	!	!	!	!	!
1G\	Chri-	1B-/	.	4g/	.	1r	.
.	.	.	.	4a\	.	.	.
.	.	.	.	4b-\	.	.	.
!	!	!	!	!LO:TX:t=P:problem=kreska pseudotaktowa	!	!	!
.	.	.	.	4g\	.	.	.
=71-	=71-	=71-	=71-	=71-	=71-	=71-	=71-
2F/	.	2A/	-ii-	2a\	e-	2r	.
2G/	.	2B-/	.	1g\	-le-	1d/	Chri-
*lig	*	*	*	*	*	*	*
!	!	!LO:TX:t=P:problem=kreska pseudotaktowa	!	!	!	!	!
1D/	.	1A/	-ſon	.	.	.	.
*	*	*	*Xij	*	*	*	*
!	!	!	!	!LO:TX:t=P:problem=kreska pseudotaktowa	!	!LO:TX:t=P:problem=kreska pseudotaktowa	!
.	.	.	.	2f/	-ii-	2d/	-ſte
*	*	*	*	*	*	*	*Xij
=72-	=72-	=72-	=72-	=72-	=72-	=72-	=72-
1G\	.	2r	.	1g\	-ſon	4B-/	e-
.	.	.	.	.	.	4c/	.
.	.	2G/	e-	.	.	4d/	.
.	.	.	.	.	.	4e/	.
!	!	!	!	!	!	!LO:TX:t=P:problem=kreska pseudotaktowa	!
*Xlig	*	*lig	*	*	*	*	*
2F/	-ſte	1A/	-le-	2r	.	4f\	.
*	*Xij	*	*	*	*	*	*
.	.	.	.	.	.	4g\	.
*custos:G	*	*	*	*	*	*	*
!LO:TX:t=P:problem=kreska pseudotaktowa	!	!	!	!	!	!	!
2D/	.	.	.	1d/	e-	4a\	.
!	!	!	!	!	!	!LO:TX:t=P:problem=kreska pseudotaktowa	!
.	.	.	.	.	.	4f\	.
!LO:PB:g=original	!	!	!	!	!	!	!
=73-	=73-	=73-	=73-	=73-	=73-	=73-	=73-
1G\	e-	1B-/	.	.	.	4g\	.
.	.	.	.	.	.	4a\	.
!	!	!	!	!	!	!LO:PB:g=original	!
.	.	.	.	2d/	-le-	1b-\	.
*	*	*	*	*	*	*custos:b-	*
!	!	!	!	!LO:TX:t=P:problem=kreska pseudotaktowa	!	!	!
*	*	*Xlig	*	*	*	*	*
1E-X/	-leii-	1G/	-ii-	2e-X/	-ii-	.	.
.	.	.	.	2c/	.	4a\	-leii-
.	.	.	.	.	.	4g\	.
=74-	=74-	=74-	=74-	=74-	=74-	=74-	=74-
*	*	*	*	*custos:g	*	*	*
0Dl/;	-ſon	0Al\;	-ſon;	0dl/;	-ſon	0f#X\;<	-ſon,
!	!	!	!	!LO:LB:g=original	!	!	!
=75||-	=75||-	=75||-	=75||-	=75||-	=75||-	=75||-	=75||-
*M2/1	*	*M2/1	*	*	*	*M2/1	*
*met(C|)	*	*met(C|)	*	*	*	*met(C|)	*
0G\	Kii-	1r	.	1.g\	KY-	1.d/	Kii-
.	.	1.B-/	Kii-	.	.	.	.
!	!	!	!	!LO:TX:t=P:problem=kreska pseudotaktowa	!	!LO:TX:t=P:problem=kreska pseudotaktowa	!
.	.	.	.	2g\	-ri-	2d/	-ri-
=76-	=76-	=76-	=76-	=76-	=76-	=76-	=76-
!LO:TX:t=P:problem=kreska pseudotaktowa	!	!	!	!	!	!	!
1G\	-ri-	.	.	1b-\	-e	2d/	-e
*	*	*custos:c	*	*	*	*	*
!	!	!LO:TX:t=P:problem=kreska pseudotaktowa	!	!	!	!	!
.	.	2B-/	-ri-	.	.	2e/	.
!	!	!LO:LB:g=original	!	!	!	!	!
*	*	*clefC2	*	*	*	*	*
1F\	-e	1c/	-e	1a\	.	1.f\	.
=77-	=77-	=77-	=77-	=77-	=77-	=77-	=77-
!	!	!	!	!LO:TX:t=P:problem=kreska pseudotaktowa	!	!	!
1D/	.	2d/	e-	1f\	.	.	.
!	!	!LO:TX:t=P:problem=kreska pseudotaktowa	!	!	!	!LO:TX:t=P:problem=kreska pseudotaktowa	!
.	.	2.f\	.	.	.	2.a\	.
!LO:TX:t=P:problem=kreska pseudotaktowa	!	!	!	!	!	!	!
1F\	.	.	.	1a\	.	.	.
.	.	4e/	.	.	.	4g\	.
.	.	4d/	.	.	.	4f/	.
!	!	!	!	!	!	!LO:TX:t=P:problem=kreska pseudotaktowa	!
.	.	4c/	.	.	.	4e/	.
=78-	=78-	=78-	=78-	=78-	=78-	=78-	=78-
1.G\	.	2B-/	.	2.b-\	.	2d/	.
.	.	1d/	.	.	.	1g\	.
!	!	!	!	!LO:TX:t=P:problem=kreska pseudotaktowa	!	!	!
.	.	.	.	4a\	.	.	.
.	.	.	.	2b-\	.	.	.
!	!	!LO:TX:t=P:problem=kreska pseudotaktowa	!	!	!	!	!
2A\	.	2c/	.	1a\	.	2.f\	.
=79-	=79-	=79-	=79-	=79-	=79-	=79-	=79-
1B-\	.	1d/	.	.	.	.	.
*	*	*	*	*	*	*custos:d	*
.	.	.	.	.	.	4e/	.
!	!	!	!	!	!	!LO:LB:g=original	!
!	!	!	!	!LO:TX:t=P:problem=kreska pseudotaktowa	!	!	!
.	.	.	.	2g\	.	1d/	.
!LO:TX:t=P:problem=kreska pseudotaktowa	!	!	!	!	!	!	!
1A\	.	1e\	-leii-	1a\	.	.	.
!	!	!	!	!	!	!LO:TX:t=P:problem=kreska pseudotaktowa	!
.	.	.	.	.	.	2c/	.
=80-	=80-	=80-	=80-	=80-	=80-	=80-	=80-
!	!	!LO:TX:t=P:problem=kreska pseudotaktowa	!	!	!	!	!
2.D/	.	1d/	-ſon	2.f/	.	1d/	e-
!	!	!	!	!LO:TX:t=P:problem=kreska pseudotaktowa	!	!	!
4Eny/	.	.	.	4g\	.	.	.
2F/	.	1r	.	2a\	.	2c/	.
!	!	!	!	!	!	!LO:TX:t=P:problem=kreska pseudotaktowa	!
1G\	.	.	.	1b-\	.	2B-/	.
=81-	=81-	=81-	=81-	=81-	=81-	=81-	=81-
*	*	*	*ij	*	*	*	*
.	.	1d/	Kii-	.	.	2G/	.
*custos:E-	*	*	*	*	*	*	*
!LO:TX:t=P:problem=kreska pseudotaktowa	!	!	!	!LO:TX:t=P:problem=kreska pseudotaktowa	!	!	!
2F/	.	.	.	2a\	.	2A/	.
!LO:LB:g=original	!	!	!	!	!	!	!
*clefC4	*	*	*	*	*	*	*
1E-X/	.	1G/	-ri-	1g\	.	2B-/	.
.	.	.	.	.	.	2c/	-leii-
=82-	=82-	=82-	=82-	=82-	=82-	=82-	=82-
!LO:TX:t=P:problem=kreska pseudotaktowa	!	!	!	!	!	!LO:TX:t=P:problem=kreska pseudotaktowa	!
1D/	.	2.d/	-e	2.f/	.	1A/	-ſon,
!	!	!LO:TX:t=P:problem=kreska pseudotaktowa	!	!LO:TX:t=P:problem=kreska pseudotaktowa	!	!	!
.	.	4c/	.	4eny/	.	.	.
*	*	*	*	*custos:g	*	*	*
1r	.	2d/	.	2f/	.	0r	.
!	!	!	!	!LO:LB:g=original	!	!	!
.	.	2.e-X/	e-	2.g\	.	.	.
=83-	=83-	=83-	=83-	=83-	=83-	=83-	=83-
*	*ij	*	*	*	*	*	*
1G/	Kii-	.	.	.	.	.	.
*	*	*custos:d	*	*	*	*	*
.	.	4d/	.	4f\	.	.	.
*	*	*	*	*custos:e-	*	*	*
!	!	!LO:LB:g=original	!	!	!	!	!
.	.	1d/	-le-	2d/	.	.	.
!LO:TX:t=P:problem=kreska pseudotaktowa	!	!	!	!	!	!	!
*	*	*	*	*	*	*	*ij
1C/	.	.	.	1e-X\	.	1g\	Kii-
.	.	2c/	-ii-	.	.	.	.
=84-	=84-	=84-	=84-	=84-	=84-	=84-	=84-
!	!	!LO:TX:t=P:problem=kreska pseudotaktowa	!	!	!	!	!
2.G/	-ri-	1d/	-ſon	2.d/	.	2.g\	-ri-
!	!	!	!	!LO:TX:t=P:problem=kreska pseudotaktowa	!	!LO:TX:t=P:problem=kreska pseudotaktowa	!
4A\	.	.	.	4c/	.	4f\	.
2B-\	.	1r	.	2d/	.	2g\	.
!LO:TX:t=P:problem=kreska pseudotaktowa	!	!	!	!	!	!	!
2c\	.	.	.	2eny/	.	2a\	.
=85-	=85-	=85-	=85-	=85-	=85-	=85-	=85-
2B-\	.	00r	.	2d/	.	2g\	.
!	!	!	!	!LO:TX:t=P:problem=kreska pseudotaktowa	!	!LO:TX:t=P:problem=kreska pseudotaktowa	!
2.c\	.	.	.	2.e/	.	2.a\	.
4B-\	.	.	.	4d/	.	4g\	.
!LO:TX:t=P:problem=kreska pseudotaktowa	!	!	!	!	!	!	!
2G/	.	.	.	1d/	.	1g\	.
=86-	=86-	=86-	=86-	=86-	=86-	=86-	=86-
1A\	-e	.	.	.	.	.	.
!	!	!	!	!LO:TX:t=P:problem=kreska pseudotaktowa	!	!LO:TX:t=P:problem=kreska pseudotaktowa	!
.	.	.	.	2c/	.	2f\	.
!LO:TX:t=P:problem=kreska pseudotaktowa	!	!	!	!	!	!	!
1G/	.	.	.	2d/	.	1b-\	-e
.	.	.	.	1g\	.	.	.
=87-	=87-	=87-	=87-	=87-	=87-	=87-	=87-
*	*	*	*	*	*	*custos:d	*
!	!	!LO:TX:t=P:problem=kreska pseudotaktowa	!	!	!	!LO:TX:t=P:problem=kreska pseudotaktowa	!
1r	.	1d/	Kii-	.	.	1a\	.
!	!	!	!	!LO:TX:t=P:problem=kreska pseudotaktowa	!	!	!
.	.	.	.	2f/	.	.	.
!	!	!	!	!	!	!LO:LB:g=original	!
!	!	!	!	!	!	!LO:TX:a:t=1	!
1G/	Kii-	2G/	-ri-	1b-\	.	1r	.
.	.	2.g\	-e	.	.	.	.
=88-	=88-	=88-	=88-	=88-	=88-	=88-	=88-
!LO:TX:t=P:problem=kreska pseudotaktowa	!	!	!	!LO:TX:t=P:problem=kreska pseudotaktowa	!	!	!
1D/	-rie	.	.	1a\	.	1d/	Kii-
.	.	8f/L	.	.	.	.	.
.	.	8eny/J	.	.	.	.	.
!	!	!LO:TX:t=P:problem=kreska pseudotaktowa	!	!	!	!	!
.	.	2f\	.	.	.	.	.
1r	.	1g\	.	1r	.	2G/	-ri-
.	.	.	.	.	.	2.g\	-e
=89-	=89-	=89-	=89-	=89-	=89-	=89-	=89-
!	!	!	!	!LO:TX:t=P:problem=kreska pseudotaktowa	!	!	!
*	*	*	*	*	*ij	*	*
0r	.	1a\	.	1d/	KY-	.	.
.	.	.	.	.	.	8g\L	.
.	.	.	.	.	.	8e\J	.
!	!	!	!	!	!	!LO:TX:t=P:problem=kreska pseudotaktowa	!
.	.	.	.	.	.	2f\	.
.	.	2b-\	e-	2G/	-ri-	2g\	e-
*	*	*	*	*custos:f	*	*	*
!	!	!LO:TX:t=P:problem=kreska pseudotaktowa	!	!	!	!	!
.	.	2g\	.	1g\	-e	2e/	-leii-
=90-	=90-	=90-	=90-	=90-	=90-	=90-	=90-
*custos:G	*	*	*	*	*	*	*
!LO:TX:t=P:problem=kreska pseudotaktowa	!	!	!	!	!	!	!
!LO:TX:t=P:problem=kreska pseudotaktowa	!	!	!	!	!	!LO:TX:t=P:problem=kreska pseudotaktowa	!
1d\	Kii-	1a\	-leii-	.	.	1d/	-ſon
!	!	!	!	!LO:LB:g=original	!	!	!
!	!	!	!	!LO:TX:t=P:problem=kreska pseudotaktowa	!	!	!
.	.	.	.	2f\	.	.	.
!LO:LB:g=original	!	!LO:TX:t=P:problem=kreska pseudotaktowa	!	!	!	!	!
4G/	-ri-	1g\	-ſon	1b-\	.	2r	.
4A/	.	.	.	.	.	.	.
4B-\	.	.	.	.	.	2g\	Kii-
!LO:TX:t=P:problem=kreska pseudotaktowa	!	!	!	!	!	!	!
4c\	.	.	.	.	.	.	.
=91-	=91-	=91-	=91-	=91-	=91-	=91-	=91-
4d\	.	1r	.	2.a\	.	2f\	-ri-
4e\	.	.	.	.	.	.	.
!	!	!	!	!	!	!LO:TX:t=P:problem=kreska pseudotaktowa	!
2.f\	.	.	.	.	.	2d/	.
!	!	!	!	!LO:TX:t=P:problem=kreska pseudotaktowa	!	!	!
.	.	.	.	4g\	.	.	.
.	.	1d/	Kii-	2.f\	.	0a\	-e
4e\	.	.	.	.	.	.	.
1d\	.	.	.	.	.	.	.
.	.	.	.	8e/L	.	.	.
.	.	.	.	8d/J	.	.	.
=92-	=92-	=92-	=92-	=92-	=92-	=92-	=92-
!	!	!LO:TX:t=P:problem=kreska pseudotaktowa	!	!LO:TX:t=P:problem=kreska pseudotaktowa	!	!	!
.	.	1A/	-ri-	1e\	.	.	.
!LO:TX:t=P:problem=kreska pseudotaktowa	!	!	!	!	!	!	!
2c\	.	.	.	.	.	.	.
2d\	.	2.d/	-e	2d/	.	2f\	e-
!	!	!	!	!LO:TX:t=P:problem=kreska pseudotaktowa	!	!	!
2G/	.	.	.	2g\	.	1b-\	-le-
*	*	*custos:d	*	*	*	*	*
.	.	4c/	.	.	.	.	.
!	!	!LO:LB:g=original	!	!	!	!	!
*	*	*clefC3	*	*	*	*	*
=93-	=93-	=93-	=93-	=93-	=93-	=93-	=93-
2B-/	.	2d\	e-	2f/	.	.	.
!	!	!LO:TX:t=P:problem=kreska pseudotaktowa	!	!	!	!	!
2c/	.	2e\	.	2.e/	.	1a\	.
2d\	.	2f\	.	.	.	.	.
.	.	.	.	4d/	.	.	.
!LO:TX:t=P:problem=kreska pseudotaktowa	!	!	!	!	!	!LO:TX:t=P:problem=kreska pseudotaktowa	!
2B-\	.	2d\	.	1d/	.	2g\	-ii-
*	*	*clefC2	*	*	*	*	*
=94-	=94-	=94-	=94-	=94-	=94-	=94-	=94-
!	!	!	!	!	!	!LO:TX:t=P:problem=kreska pseudotaktowa	!
1A\	.	1e\	-leii-	.	.	1a\	-ſon
!	!	!	!	!LO:TX:t=P:problem=kreska pseudotaktowa	!	!	!
.	.	.	.	2c/	.	.	.
!LO:TX:t=P:problem=kreska pseudotaktowa	!	!LO:TX:t=P:problem=kreska pseudotaktowa	!	!	!	!	!
00D/	-e	0d/	-ſon	1d/	.	1r	.
=95-	=95-	=95-	=95-	=95-	=95-	=95-	=95-
.	.	.	.	1r	.	1.a\	Kii-
.	.	1r	.	1.a\	KY-	.	.
!	!	!	!	!	!	!LO:TX:t=P:problem=kreska pseudotaktowa	!
.	.	.	.	.	.	2a\	-ri-
=96-	=96-	=96-	=96-	=96-	=96-	=96-	=96-
*	*	*	*	*	*	*custos:d	*
.	.	1.d/	Kii-	.	.	1f\	 e
!	!	!	!	!LO:TX:t=P:problem=kreska pseudotaktowa	!	!	!
.	.	.	.	2a\	-ri-	.	.
!	!	!	!	!	!	!LO:LB:g=original	!
!	!	!	!	!	!	!LO:TX:t=P:problem=kreska pseudotaktowa	!
1r	.	.	.	1f\	.	1d/	.
!	!	!LO:TX:t=P:problem=kreska pseudotaktowa	!	!	!	!	!
.	.	2d/	-ri-	.	.	.	.
=97-	=97-	=97-	=97-	=97-	=97-	=97-	=97-
*	*	*	*	*lig	*	*	*
1.G/	Kii-	1B-/	-e	0d/	.	1r	.
.	.	0G/	.	.	.	1.g\	Kii-
!LO:TX:t=P:problem=kreska pseudotaktowa	!	!	!	!	!	!	!
2G/	-ri-	.	.	.	.	.	.
=98-	=98-	=98-	=98-	=98-	=98-	=98-	=98-
*	*	*	*	*custos:d	*	*	*
1Eny/	.	.	.	0e\	.	.	.
.	.	.	.	.	.	2g\	-ri-
1C/	.	1c/	e-	.	.	2.g\	-e
.	.	.	.	.	.	4a\	.
*custos:G	*	*	*	*	*	*	*
!LO:LB:g=original	!	!	!	!LO:PB:g=original	!	!	!
!LO:TX:t=P:problem=kreska pseudotaktowa	!	!LO:TX:t=P:problem=kreska pseudotaktowa	!	!	!	!LO:TX:t=P:problem=kreska pseudotaktowa	!
*	*	*	*	*Xlig	*	*	*
=99-	=99-	=99-	=99-	=99-	=99-	=99-	=99-
1.G/	-e	2.B-/	-le-	2.d/	.	1.b-\	.
!	!	!LO:TX:t=P:problem=kreska pseudotaktowa	!	!LO:TX:t=P:problem=kreska pseudotaktowa	!	!	!
.	.	4A/	.	4c/	.	.	.
.	.	4B-/	.	4d/	.	.	.
.	.	4c/	.	4e/	.	.	.
!LO:TX:t=P:problem=kreska pseudotaktowa	!	!	!	!	!	!LO:TX:t=P:problem=kreska pseudotaktowa	!
2F/	.	2d/	.	2f/	.	2a\	e-
=100-	=100-	=100-	=100-	=100-	=100-	=100-	=100-
2G/	.	2B-/	.	2d/	.	2b-\	.
2A/	.	2c/	.	1f\	.	1a\	-le-
*	*	*custos:c	*	*	*	*	*
!	!	!LO:TX:t=P:problem=kreska pseudotaktowa	!	!	!	!	!
1B-\	.	1d/	-ii-	.	.	.	.
.	.	.	.	4e/	.	2g\	-ii-
!	!	!	!	!LO:TX:t=P:problem=kreska pseudotaktowa	!	!	!
.	.	.	.	4d/	.	.	.
!	!	!LO:PB:g=original	!	!	!	!	!
*	*	*clefC3	*	*	*	*	*
=101-	=101-	=101-	=101-	=101-	=101-	=101-	=101-
!LO:TX:t=P:problem=kreska pseudotaktowa	!	!LO:TX:t=P:problem=kreska pseudotaktowa	!	!	!	!LO:TX:t=P:problem=kreska pseudotaktowa	!
1A\	.	0c\	-ſon	2.e/	.	00.a\	-ſon
!	!	!	!	!LO:TX:t=P:problem=kreska pseudotaktowa	!	!	!
.	.	.	.	4d/	.	.	.
2r	.	.	.	2e/	.	.	.
1A/	Kii-	.	.	1f\	.	.	.
=102-	=102-	=102-	=102-	=102-	=102-	=102-	=102-
.	.	2r	.	.	.	.	.
!LO:TX:t=P:problem=kreska pseudotaktowa	!	!	!	!	!	!	!
2A/	-ri-	1A/	Kii-	4e/	.	.	.
!	!	!	!	!LO:TX:t=P:problem=kreska pseudotaktowa	!	!	!
.	.	.	.	4d/	.	.	.
2.c\	-e	.	.	1.e\	.	.	.
!	!	!LO:TX:t=P:problem=kreska pseudotaktowa	!	!	!	!	!
.	.	2A/	-ri-	.	.	.	.
4B-\	.	.	.	.	.	.	.
=103-	=103-	=103-	=103-	=103-	=103-	=103-	=103-
4A\	.	2.c/	-e	.	.	.	.
*	*	*	*Xij	*	*	*	*
4G/	.	.	.	.	.	.	.
2.A/	.	.	.	2c/	.	.	.
.	.	4d/	.	.	.	.	.
!	!	!	!	!LO:TX:t=P:problem=kreska pseudotaktowa	!	!	!
.	.	2e\	.	1c/	-e	.	.
4G/	.	.	.	.	.	.	.
!LO:TX:t=P:problem=kreska pseudotaktowa	!	!LO:TX:t=P:problem=kreska pseudotaktowa	!	!	!	!	!
2A/	.	2f\	.	.	.	.	.
=104-	=104-	=104-	=104-	=104-	=104-	=104-	=104-
4G/	.	4e\	.	0r	.	0r	.
4F/	.	4d\	.	.	.	.	.
4E/	.	1d\	.	.	.	.	.
4D/	.	.	.	.	.	.	.
1E/	.	.	.	.	.	.	.
!	!	!LO:TX:t=P:problem=kreska pseudotaktowa	!	!	!	!	!
.	.	2c/	.	.	.	.	.
=105-	=105-	=105-	=105-	=105-	=105-	=105-	=105-
*custos:D	*	*	*	*	*	*	*
!	!	!	!	!	!	!LO:TX:t=P:problem=kreska pseudotaktowa	!
!LO:TX:t=P:problem=kreska pseudotaktowa	!	!	!	!	!	!LO:TX:a:t=3	!
00.D/	.	2d/	e-	2r	.	1r	.
.	.	2B-/	-leii-	1d/	KY-	.	.
!	!	!LO:TX:t=P:problem=kreska pseudotaktowa	!	!	!	!	!
.	.	00A/	-ſon;	.	.	2r	.
!	!	!	!	!LO:TX:t=P:problem=kreska pseudotaktowa	!	!	!
.	.	.	.	2d/	-ri-	1d/	Kii-
=106-	=106-	=106-	=106-	=106-	=106-	=106-	=106-
*	*	*	*	*custos:d	*	*	*
.	.	.	.	1f\	.	.	.
!	!	!	!	!	!	!LO:TX:t=P:problem=kreska pseudotaktowa	!
.	.	.	.	.	.	2d/	-ri-
!	!	!	!	!LO:LB:g=original	!	!	!
.	.	.	.	2d/	-e	1f\	-e
*	*	*	*	*	*Xij	*	*
.	.	.	.	2.f\	.	.	.
=107-	=107-	=107-	=107-	=107-	=107-	=107-	=107-
.	.	.	.	.	.	2d/	e
.	.	.	.	4g\	.	.	.
!	!	!	!	!LO:TX:t=P:problem=kreska pseudotaktowa	!	!	!
.	.	.	.	2a\	.	2.f/	le-
.	.	1r	.	2.d/	.	.	.
*	*	*	*	*	*	*custos:a	*
.	.	.	.	.	.	4g\	-ii-
!	!	!	!	!	!	!LO:PB:g=original	!
!	!	!	!	!	!	!LO:TX:t=P:problem=kreska pseudotaktowa	!
.	.	.	.	.	.	2a\	-ſon
.	.	.	.	8c/L	.	.	.
.	.	.	.	8B-/J	.	.	.
!LO:PB:g=original	!	!	!	!	!	!	!
=108-	=108-	=108-	=108-	=108-	=108-	=108-	=108-
!	!	!	!	!LO:TX:t=P:problem=kreska pseudotaktowa	!	!	!
*	*	*	*ij	*	*	*	*
1.D/	Kii-	2d/	Kii-	2A/	.	2r	.
!	!	!LO:TX:t=P:problem=kreska pseudotaktowa	!	!	!	!	!
.	.	2f\	-ri-	2B-/	.	2d/	-Kii-
*	*	*custos:f	*	*	*	*	*
.	.	2d/	.	2A/	.	2.f/	-ri-
*custos:F	*	*	*	*	*	*	*
!	!	!LO:LB:g=original	!	!	!	!	!
!	!	!	!	!LO:TX:t=P:problem=kreska pseudotaktowa	!	!	!
2D/	-ri-	2.f\	-e	2d/	.	.	.
*	*	*	*Xij	*	*	*	*
!	!	!	!	!	!	!LO:TX:t=P:problem=kreska pseudotaktowa	!
.	.	.	.	.	.	4g\	.
=109-	=109-	=109-	=109-	=109-	=109-	=109-	=109-
2F/	.	.	.	2c/	.	2a\	-e
*	*	*	*	*	*	*	*Xij
.	.	4e\	e-	.	.	.	.
1G/	-e	4d\	.	1B-/	.	1b-\	e-
*	*Xij	*	*	*	*	*	*
!	!	!LO:TX:t=P:problem=kreska pseudotaktowa	!	!	!	!	!
.	.	4c\	.	.	.	.	.
.	.	1d\	.	.	.	.	.
!LO:TX:t=P:problem=kreska pseudotaktowa	!	!	!	!	!	!	!
*	*	*	*	*col	*	*	*
2D/	e-	.	.	2.f\	e-	1a\	.
=110-	=110-	=110-	=110-	=110-	=110-	=110-	=110-
2F/	-le-	4c/	.	.	.	.	.
.	.	4B-/	.	4e/	-le-	.	.
*	*	*	*	*Xcol	*	*	*
!	!	!	!	!	!	!LO:TX:t=P:problem=kreska pseudotaktowa	!
2G/	-ii-	4A/	.	4d/	-ii-	2.g\	.
!	!	!LO:TX:t=P:problem=kreska pseudotaktowa	!	!	!	!	!
.	.	4G/	.	4c/	-ſon;	.	.
1D/	-ſon:	1A/	-leii-	1d/	.	.	.
.	.	.	.	.	.	8f/L	.
.	.	.	.	.	.	8e/J	.
.	.	.	.	.	.	2f/	-leii-
=111-	=111-	=111-	=111-	=111-	=111-	=111-	=111-
0Gl\	.	0Gl/;	-ſon;	0dl/;	.	0gl\;	-ſon;
==	==	==	==	==	==	==	==
*-	*-	*-	*-	*-	*-	*-	*-
!!!system-decoration: s1,s2,s3,s4
!!!RDF**kern: > = above
!!!RDF**kern: < = below
!!!RDF**kern: l = terminal long
!!!ENC: Mateusz Solarz
!!!END: 2022-02-03
!!!AIN: 3 empty 1 tenor
!!!ENC: Leszek Kubiak
!!!END: 2022-02-10
